X:504
T:One for Dan
C:Dave Whetstone
M:4/4
L:1/8
K:G
GBge dBed | GBge dBed | ccAc BBGB | ABcd A2 AA |
GBge dBed | GBge dBed | cdef gdBG | ABcA GG G2 :|
d2 fe d2 dd | e2 f2 g2 gg | fe d2 ed c2 | dcBc A2 AA |
c2 cc B2 GB | ABcd A2 AA | B2 Bc dcBA | Gggg g4 :|
